X: 655
T: Hoo-Doo Hoedown
C:Jay Ungar
B: jims roots
M:2/4
L:1/8
Q: 1/4=100
K:D
V:1 
^ga |: "D"fdAF DFAd | "Bm"^gaga fdef | "Em"gfed "A7"cABc | "D"def^g "A7"a2 ga |
"D"fdAF DFAd | "Bm"^gaga fdef | "Em"gfed "A7"cABc |[1 "D" dfec d2^ga :|[2 "D" dfec d4 ||
|: [K:Dm] "Dm"D2DE FEFG | "Bb"^GAGA FD3 | "A7"EFGF EA,^CE | "Dm"D^CDE "A7"FA^GF |
"Dm"D2A,^C DEFG | "Bb"^GAGA FD3 | "A7"EFGF EA,^CE | "Dm"D^CDE D4 ||
"Dm"DzDE FEDG, | "Gm"zG,2A, B,A,G,A, | "A7"zA,2^C EA,CE |[1 "A7"AAGG FFEE :|
V:2 "Dm"D^CDE D2 |
% abcbook-tune_id 6298c25d06c1f952b1e39ee7


% abcbook-boost 0
% abcbook-tablature 
% abcbook-transpose 
% abcbook-lastupdated 1654178398844
% abcbook-soundfonts 
% abcbook-repeats 1


